public/img/values/value-3.svg

<svg width="54" height="49" viewBox="0 0 54 49" fill="none" xmlns="http://www.w3.org/2000/svg">
<path d="M21.6667 22C27.5577 22 32.3333 17.2243 32.3333 11.3333C32.3333 5.44226 27.5577 0.666626 21.6667 0.666626C15.7756 0.666626 11 5.44226 11 11.3333C11 17.2243 15.7756 22 21.6667 22Z" fill="#0F172A"/>
<path d="M22.6002 27.3599C15.3202 27.0932 0.333496 30.7199 0.333496 37.9999V43.3332H25.7735C19.1868 35.9732 22.4935 27.6266 22.6002 27.3599Z" fill="#0F172A"/>
<path d="M46.8133 38.0533C47.7733 36.48 48.3333 34.64 48.3333 32.6667C48.3333 26.7733 43.56 22 37.6667 22C31.7733 22 27 26.7733 27 32.6667C27 38.56 31.7733 43.3333 37.6667 43.3333C39.64 43.3333 41.48 42.7467 43.0533 41.8133L49.9067 48.6667L53.6667 44.9067L46.8133 38.0533ZM37.6667 38C34.7333 38 32.3333 35.6 32.3333 32.6667C32.3333 29.7333 34.7333 27.3333 37.6667 27.3333C40.6 27.3333 43 29.7333 43 32.6667C43 35.6 40.6 38 37.6667 38Z" fill="#0F172A"/>
</svg>

<svg width="54" height="49" fill="none" xmlns="http://www.w3.org/2000/svg"><path d="M21.67 22a10.67 10.67 0 1 0 0-21.33 10.67 10.67 0 0 0 0 21.33ZM22.6 27.36C15.32 27.09.33 30.72.33 38v5.33h25.44c-6.58-7.36-3.28-15.7-3.17-15.97ZM46.81 38.05a10.3 10.3 0 0 0 1.52-5.38 10.66 10.66 0 1 0-10.66 10.66c1.97 0 3.81-.58 5.38-1.52l6.86 6.86 3.76-3.76-6.86-6.86ZM37.67 38a5.35 5.35 0 0 1-5.34-5.33 5.35 5.35 0 0 1 10.67 0C43 35.6 40.6 38 37.67 38Z" fill="#0F172A"/></svg>
